X: 746
T: Air Beneath, The
R: waltz
M: 3/4
K: Dmajor
A,2|D3E FE|D4B,2|A,4D2|B,4E2|
F3G AG|F4E2|D2F2A2|A4A,2|
D3E FE|D4B,2|A,4D2|B4E2|
F3G AG|F4E2|D6-|D4||
F2|F3G AG|E2F2G2|F2E2D2|B,4D2|
A,2D2F2|E2F2G2|B3AA2|A4F2|
F3G AG|E2F2G2|F2E2D2|B,4D2|
A,2D2F2|E2A2G2|F3DD2|D4||

